src/images/signature.svg

<svg width="151" height="54" viewBox="0 0 151 54" fill="none" xmlns="http://www.w3.org/2000/svg">
<path d="M149.124 37.4693C144.849 40.1587 138.994 43.1726 136.113 44.1464C131.56 45.6765 129.097 44.8419 124.915 40.4832C122.313 37.7475 121.894 37.4693 120.129 37.4693C119.106 37.4693 117.015 38.0257 115.575 38.6749L112.88 39.8341L110.928 38.814L109.023 37.7939L104.376 39.0458C97.8242 40.7615 96.8949 40.6687 93.828 38.1184C93.0845 37.5156 92.2946 37.0056 92.0622 37.0056C91.7834 37.0056 90.1106 38.3967 88.3449 40.1123C84.9527 43.4045 84.2093 43.8682 82.397 43.9145L81.3283 43.9609L81.6535 37.562C81.9324 31.9978 81.8859 31.0704 81.2353 30.5603C79.9807 29.5402 79.2372 30.2821 76.8209 35.0581C73.8006 40.8542 70.0832 45.0274 68.1315 44.7955L66.784 44.6564L66.8304 41.1788C66.9234 38.3503 67.2487 36.8665 68.6427 33.2961C69.572 30.8849 70.7802 27.5464 71.2913 25.8771C71.8025 24.2078 72.3601 22.724 72.4995 22.5849C73.0571 22.0285 79.8878 21.7503 96.9878 21.4721C113.061 21.231 126.62 20.9898 138.07 20.7394C139.854 19.8074 141.657 18.9079 143.474 18.0362C137.586 18.1845 129.101 18.37 119.989 18.5508C103.772 18.8291 89.553 19.1073 88.3913 19.1536C86.1609 19.2464 75.7522 19.4318 74.2652 19.4318C73.2429 19.3855 73.3359 18.319 75.1481 11.9665C75.8451 9.55531 76.5421 6.9123 76.728 6.1704C76.9139 5.38213 77.3321 4.31565 77.6109 3.75922C78.3544 2.41453 78.3079 0.837994 77.5644 0.837994C77.1927 0.837994 76.6815 1.39442 76.3563 2.08995C75.1481 4.73297 71.7095 13.7285 71.2449 15.5369C70.2226 19.3391 70.1761 19.3391 60.5109 19.6637C54.9813 19.8028 51.6821 19.7564 51.2174 19.4318C50.6598 19.0609 50.7992 18.4117 52.2397 15.3514C54.8419 9.83352 57.7228 3.2028 57.7228 2.69274C57.7228 2.41453 57.537 2.22906 57.3511 2.22906C56.3288 2.22906 55.3065 3.75922 53.7266 7.56146C51.1709 13.8212 48.5688 18.8291 47.5465 19.3855C46.4777 19.9419 40.1117 19.9883 39.2753 19.4782C38.95 19.2927 38.3459 17.438 37.9277 15.4441C36.6731 9.32347 34.675 4.59386 32.5375 2.55364C30.4 0.60615 29.7495 0.467044 27.612 1.76537C24.9169 3.43464 21.2459 10.2045 19.1084 17.5307C18.7832 18.6899 18.3185 19.7564 18.0397 19.9419C17.8073 20.081 14.5546 20.1274 10.8372 19.9883C5.67936 19.8492 3.58832 19.9419 2.24077 20.452C-1.61603 21.7967 -0.361406 22.1676 8.328 22.1676C12.8818 22.1676 16.8315 22.3531 17.1568 22.5386C17.575 22.7704 17.5285 23.6514 17.0174 26.1089C15.3446 34.1307 14.6476 41.1788 15.7163 40.1587C15.8092 40.0196 16.3669 37.7475 16.8315 35.1045C18.365 27.1754 19.2943 23.8832 20.1772 23.0022C20.9207 22.2603 21.8965 22.1676 28.9131 22.1676C37.9277 22.1676 36.9984 21.6575 37.4631 27.0363C37.6025 28.5665 37.8348 30.9777 37.9742 32.3687C38.2065 34.7335 38.1601 35.0581 36.7196 36.7737C33.9315 40.205 25.8462 47.9022 22.9188 49.8961C19.759 52.0291 17.6215 52.4464 16.878 51.0089C16.5527 50.3598 15.4375 43.6363 15.4375 42.1989C15.4375 42.1061 15.2516 42.1989 14.9728 42.338C14.7405 42.4771 14.5082 44.1927 14.5082 46.0939C14.5082 49.4788 15.2981 52.0291 16.5527 52.8637C17.4821 53.5129 20.0842 53.2346 21.8965 52.3536C24.6845 50.9162 30.7253 45.862 35.372 41.0397C38.7177 37.562 39.1824 37.562 39.8329 41.086C40.5764 44.9346 43.6897 48.9224 47.2677 50.4525C50.1951 51.7508 54.3772 52.1682 55.9106 51.3799C58.3734 50.0352 61.3008 47.5313 62.3696 45.7693C63.0201 44.7955 63.7171 43.9609 63.9959 43.9609C64.2283 43.9609 64.7859 44.6564 65.1576 45.4447C66.2264 47.6704 67.0628 47.995 69.2932 46.9749C71.9883 45.7693 74.3117 43.0799 76.9603 38.0257C78.215 35.7073 79.4231 33.7598 79.609 33.7598C80.1666 33.7598 80.1201 37.052 79.516 40.5296C79.0049 43.5899 79.4231 45.4447 80.9565 46.4184C82.49 47.3458 85.278 45.9548 88.5307 42.7089C91.4117 39.8341 91.6905 39.6486 92.434 40.3441C95.1291 42.7089 99.3576 43.219 103.772 41.7352C108.001 40.2514 109.116 40.205 109.999 41.1788C111.114 42.3844 112.368 42.338 116.086 40.9469C117.759 40.2978 119.571 39.7877 120.082 39.7877C120.593 39.7877 122.22 40.9933 123.66 42.4771C126.634 45.4911 129.701 47.2067 132.117 47.2067C135.277 47.2067 141.085 44.9346 147.033 41.3179L148.46 40.4693C148.943 39.5698 149.454 38.6841 149.984 37.8124C150.105 37.5667 150.239 37.3302 150.374 37.0937C149.961 37.0056 149.645 37.1354 149.124 37.4693ZM36.3014 19.571C36.2084 19.6637 32.6304 19.8955 28.3554 20.0346L20.5489 20.3592V19.2927C20.5954 16.3251 25.2421 6.21676 27.3796 4.59386C29.3313 3.01732 30.7253 3.48101 32.5375 6.1704C33.3739 7.42235 34.3497 9.50894 34.7215 10.8073C35.5579 13.4503 36.5802 19.2927 36.3014 19.571ZM39.5076 26.3408L39.3682 22.3994L40.9946 22.0749C42.6209 21.7967 45.5484 21.9358 45.9666 22.3531C46.2454 22.5849 44.8978 24.9034 42.2027 28.9374C40.0652 32.1832 39.74 31.8587 39.5076 26.3408ZM65.6688 33.8525C63.5313 42.8017 58.0481 49.5251 52.9367 49.5251C50.2416 49.5251 46.8495 48.2268 45.316 46.6503C41.9704 43.1263 39.8329 36.7274 41.134 33.9916C41.9704 32.1832 48.29 23.2341 48.987 22.8168C50.4275 21.9358 67.4345 21.5184 68.2709 22.3531C68.4103 22.4922 68.0851 24.3469 67.5275 26.4335C66.9699 28.5665 66.1334 31.905 65.6688 33.8525Z" fill="black"/>
</svg>

<svg width="151" height="54" fill="none" xmlns="http://www.w3.org/2000/svg"><path d="M149.124 37.47c-4.275 2.689-10.13 5.703-13.011 6.676-4.553 1.53-7.016.696-11.198-3.663-2.602-2.735-3.021-3.014-4.786-3.014-1.023 0-3.114.557-4.554 1.206l-2.695 1.16-1.952-1.021-1.905-1.02-4.647 1.252c-6.552 1.715-7.481 1.623-10.548-.928-.743-.602-1.533-1.112-1.766-1.112-.279 0-1.951 1.39-3.717 3.106-3.392 3.292-4.136 3.756-5.948 3.802l-1.069.047.325-6.399c.28-5.564.233-6.492-.418-7.002-1.254-1.02-1.998-.278-4.414 4.498-3.02 5.796-6.738 9.97-8.69 9.737l-1.347-.139.046-3.477c.093-2.829.419-4.313 1.813-7.883.929-2.411 2.137-5.75 2.648-7.419.511-1.67 1.07-3.153 1.209-3.292.557-.556 7.388-.835 24.488-1.113 16.073-.241 29.632-.482 41.082-.733a177.182 177.182 0 0 1 5.404-2.703c-5.888.148-14.373.334-23.485.515-16.217.278-30.436.556-31.598.603-2.23.092-12.639.278-14.126.278-1.022-.046-.93-1.113.883-7.465a211.787 211.787 0 0 0 1.58-5.797c.186-.788.604-1.854.883-2.41.743-1.345.697-2.922-.047-2.922-.371 0-.882.556-1.208 1.252-1.208 2.643-4.646 11.639-5.111 13.447-1.022 3.802-1.069 3.802-10.734 4.127-5.53.139-8.829.092-9.294-.232-.557-.371-.418-1.02 1.023-4.08 2.602-5.518 5.483-12.15 5.483-12.66 0-.277-.186-.463-.372-.463-1.022 0-2.044 1.53-3.624 5.332-2.556 6.26-5.158 11.268-6.18 11.825-1.07.556-7.435.602-8.272.092-.325-.185-.93-2.04-1.347-4.034-1.255-6.12-3.253-10.85-5.39-12.89C30.4.606 29.75.467 27.611 1.765c-2.695 1.67-6.366 8.44-8.504 15.766-.325 1.159-.79 2.225-1.068 2.41-.233.14-3.485.186-7.203.047-5.158-.139-7.249-.046-8.596.464-3.857 1.345-2.602 1.716 6.087 1.716 4.554 0 8.503.185 8.829.37.418.232.372 1.113-.14 3.57-1.672 8.023-2.37 15.07-1.3 14.05.092-.138.65-2.41 1.114-5.053 1.534-7.93 2.463-11.222 3.346-12.103.744-.742 1.72-.834 8.736-.834 9.015 0 8.085-.51 8.55 4.868.14 1.53.372 3.942.511 5.333.233 2.364.186 2.69-1.254 4.405-2.788 3.431-10.874 11.128-13.801 13.122-3.16 2.133-5.297 2.55-6.041 1.113-.325-.65-1.44-7.373-1.44-8.81 0-.093-.186 0-.465.139-.232.14-.465 1.855-.465 3.756 0 3.385.79 5.935 2.045 6.77.93.649 3.531.37 5.343-.51 2.788-1.438 8.83-6.492 13.476-11.314 3.346-3.478 3.81-3.478 4.46.046.744 3.849 3.858 7.836 7.436 9.367 2.927 1.298 7.11 1.715 8.643.927 2.462-1.345 5.39-3.849 6.459-5.61.65-.975 1.347-1.81 1.626-1.81.232 0 .79.696 1.162 1.485 1.068 2.225 1.905 2.55 4.135 1.53 2.695-1.206 5.019-3.895 7.667-8.95 1.255-2.318 2.463-4.265 2.649-4.265.558 0 .511 3.292-.093 6.77-.511 3.06-.093 4.915 1.44 5.888 1.534.928 4.322-.463 7.575-3.71 2.88-2.874 3.16-3.06 3.903-2.364 2.695 2.365 6.924 2.875 11.338 1.391 4.229-1.484 5.344-1.53 6.227-.556 1.115 1.205 2.369 1.159 6.087-.232 1.673-.65 3.485-1.16 3.996-1.16.511 0 2.138 1.206 3.578 2.69 2.974 3.014 6.041 4.73 8.457 4.73 3.16 0 8.968-2.272 14.916-5.89l1.427-.848c.483-.9.994-1.785 1.524-2.657.121-.245.255-.482.39-.718-.413-.088-.729.041-1.25.375zM36.301 19.57c-.093.093-3.67.324-7.946.464l-7.806.324v-1.066c.046-2.968 4.693-13.076 6.83-14.7 1.952-1.576 3.346-1.112 5.159 1.577.836 1.252 1.812 3.339 2.184 4.637.836 2.643 1.858 8.486 1.58 8.764zm3.207 6.77-.14-3.942 1.627-.324c1.626-.278 4.553-.14 4.972.278.278.232-1.07 2.55-3.764 6.584-2.138 3.246-2.463 2.922-2.695-2.596zm26.16 7.511c-2.137 8.95-7.62 15.673-12.731 15.673-2.695 0-6.087-1.298-7.621-2.875-3.346-3.524-5.483-9.923-4.182-12.658.836-1.809 7.156-10.758 7.853-11.175 1.44-.881 18.447-1.299 19.284-.464.14.14-.186 1.994-.743 4.08a431.882 431.882 0 0 0-1.86 7.42z" fill="#000"/></svg>
